X:1
T:Title
%%score { ( 1 4 ) | ( 2 3 ) }
L:1/8
M:4/4
K:F
V:1 treble nm="Grand Piano"
V:4 treble 
V:2 bass 
V:3 bass 
V:1
 z4 z2[Q:1/4=90] CD | [A,C]AAB [CA]GCD | CGGA [A,F]2 AB | cc=Bc dcFA | [=B,G]A[B,G]A G2 FG | %5
 [CA]cdc cAGA | [Dc]BFG [CA]2 CC |[M:17/16] [B,D]EFG[CA]c3/2BA |[M:3/4] [=B,A]G [B,D]<E [F,A,F]2 | %9
[M:1/4] AB |[M:4/4] c>=B cd c<A F_B | A6 z2 | GA=Bc dBAG |[M:9/8] c6- c z z |[M:4/4] ccdc A2 GA | %15
[M:9/8] [DB][F,B,D][B,DF] [DFG] [^CEA]2- [CEA][CEA][CEA] | %16
[M:4/4] [DFG][DFB][D_Ae][FAd] [F=Ac]<[CFA] [B,EG]>[B,EA] |[M:3/4] [A,CF]6 |] %18
V:2
 z4 z2 A,B, | z CCD z B,B,B, | B,B,B,C F,,2 CG, | A,A,_A,=A, B,A,A,C | z =B, z B, [C,_B,]2 A,B, | %5
 z A,B,A, A,C_EE | z DD^C F,,2 A,A, |[M:17/16] z CD^C z A,3/2C=C |[M:3/4] z =B, z/ _B,3/2 F,,2 | %9
[M:1/4] [F,CF][F,G,F] |[M:4/4] [F,A,F]>[F,_A,F] [F,=A,F][F,B,F] [F,A,F]<[F,CF] [F,A,][F,DF] | %11
 [F,CF]2 [F,C][F,C] [F,C]2[K:treble] [F,CF][F,CF] | %12
 [G,=B,F][G,CF][G,DF][G,CE] [G,B,F][G,DF][G,CF][G,B,F] | %13
[M:9/8][K:bass] z G,A, A, B,2- B,[F,CF][F,G,F] | %14
[M:4/4] [F,A,F][F,A,F][F,B,F][F,A,F] [F,CF]2 [F,C_E][F,E] | %15
[M:9/8] [B,,F,]B,,B,, B,, A,,2- A,,A,,A,, |[M:4/4] B,,B,,=B,,B,, C,<C, C,>G,, |[M:3/4] F,6 |] %18
V:3
 x8 | F,,4 C,4- | C,4 z4 | [F,,F,]8 | D,2 G,2 z4 | F,8 | B,,4 z4 | %7
[M:17/16] B,,/-B,,/-B,,/-B,,/-B,,-<B,,F,/-F,-<F, z/ z/ z |[M:3/4] G,,2 C,2 z2 |[M:1/4] x2 | %10
[M:4/4] x8 | x6[K:treble] x2 | x8 |[M:9/8][K:bass] C,6- C, z z |[M:4/4] x8 |[M:9/8] x9 | %16
[M:4/4] x8 |[M:3/4] x6 |] %18
V:4
 x8 | x8 | x8 | x8 | x8 | x8 | x8 |[M:17/16] x17/2 |[M:3/4] x6 |[M:1/4] x2 |[M:4/4] x8 | %11
 z2 FF F2 AA | x8 |[M:9/8] [CE]EF F E2- EAB |[M:4/4] x8 |[M:9/8] x9 |[M:4/4] x8 |[M:3/4] x6 |] %18

